!!!COM: Berg, Alban (Maria Johannes)
!!!OTL: Lulu, Unfinished Opera
!!!OMV: Act I, Scene 2
!!!example: 455
!!!work: Ber-15
**kern	**dynam	**kern	**dynam	**kern	**dynam	**kern	**dynam	**kern	**dynam	**kern	**dynam	**kern	**dynam	**kern	**kern	**kern	**dynam	**kern	**dynam	**kern	**dynam	**kern
*part12	*part12	*part11	*part11	*part10	*part10	*part9	*part9	*part8	*part8	*part7	*part7	*part6	*part6	*part5	*part5	*part4	*part4	*part3	*part3	*part2	*part2	*part1
*staff13	*	*staff12	*	*staff11	*	*staff10	*	*staff9	*	*staff8	*	*staff7	*	*staff6	*staff5	*staff4	*	*staff3	*	*staff2	*	*staff1
*I"Violoncello	*	*I"Viola	*	*I"Violin II	*	*I"Violin I	*	*I"Bass Solo	*	*I"Soprano Solo	*	*I"Soprano Solo	*	*I"Piano	*	*I"Clarinet in Bb	*	*I"English Horn	*	*I"Oboe	*	*I"Flute
*I'Vc.	*	*I'Vla.	*	*I'Vln. II	*	*I'Vln. I	*	*I'B. Solo	*	*I'S. Solo	*	*I'S. Solo	*	*I'Pno.	*	*I'Cl.	*	*I'Eng. Hn.	*	*I'Ob.	*	*I'Fl.
*clefF4	*	*clefC3	*	*clefG2	*	*clefG2	*	*clefF4	*	*clefG2	*	*clefG2	*	*clefF4	*clefG2	*clefG2	*	*clefG2	*	*clefG2	*	*clefG2
*k[]	*	*k[]	*	*k[]	*	*k[]	*	*k[]	*	*k[]	*	*k[]	*	*k[]	*k[]	*k[]	*	*k[]	*	*k[]	*	*k[]
*	*	*	*	*	*	*	*	*	*	*	*	*	*	*	*	*	*	*	*	*	*	*
*M2/4	*	*M2/4	*	*M2/4	*	*M2/4	*	*M2/4	*	*M2/4	*	*M2/4	*	*M2/4	*M2/4	*M2/4	*	*M2/4	*	*M2/4	*	*M2/4
*MM121	*	*MM121	*	*MM121	*	*MM121	*	*MM121	*	*MM121	*	*MM121	*	*MM121	*MM121	*MM121	*	*MM121	*	*MM121	*	*MM121
=1	=	=	=	=	=	=	=	=	=	=	=	=	=	=	=	=	=	=	=	=	=	=
4r	.	8r	.	8A-X'L	.	4r	.	2r	.	6an	.	2r	.	8.BB-XL	2r	6An~	<	4r	.	4r	.	4.ccn 4.ffn
.	.	8D-X'	.	8A-'J	.	.	.	.	.	.	.	.	.	.	.	.	.	.	.	.	.	.
.	.	.	.	.	.	.	.	.	.	6b-X	.	.	.	.	.	6B-X~	.	.	.	.	.	.
.	.	.	.	.	.	.	.	.	.	.	.	.	.	16BBnJk	.	.	.	.	.	.	.	.
8BB-X'	.	4r	.	4r	.	8gn'L	.	.	.	.	.	.	.	24F#XLL	.	.	.	8r	.	8r	.	.
.	.	.	.	.	.	.	.	.	.	.	.	.	.	24Bn	.	.	.	.	.	.	.	.
*	*	*	*	*	*	*	*	*	*	*	*	*	*	*clefG2	*	*	*	*	*	*	*	*
.	.	.	.	.	.	.	.	.	.	[6ccn	.	.	.	24f#X	.	6cn~	[	.	.	.	.	.
8r	.	.	.	.	.	8gn'J	.	.	.	.	.	.	.	24bn	.	.	.	[8ff#X^	.	[8bbn^	.	8r
.	.	.	.	.	.	.	.	.	.	.	.	.	.	24ff#X	.	.	.	.	.	.	.	.
.	.	.	.	.	.	.	.	.	.	.	.	.	.	[24bbnJJ	.	.	.	.	.	.	.	.
=2	=2	=2	=2	=2	=2	=2	=2	=2	=2	=2	=2	=2	=2	=2	=2	=2	=2	=2	=2	=2	=2	=2
8r	.	8D-X'L	.	8A-X'	.	4r	.	4.En	mf	6cc	.	2r	.	2r	2r	6c~	>	8ff#]	.	8bb]	.	2r
8BB-X'	.	8D-'J	.	8r	.	.	.	.	.	.	.	.	.	.	.	.	.	8r	.	8r	.	.
.	.	.	.	.	.	.	.	.	.	6r	.	.	.	.	.	6r	]	.	.	.	.	.
4r	.	4r	.	8r	.	8gn'	.	.	.	.	.	.	.	.	.	.	.	8ff#X^	.	8bbn^	.	.
.	.	.	.	.	.	.	.	.	.	6r	.	.	.	.	.	6r	.	.	.	.	.	.
.	.	.	.	8A-'	.	8r	.	8Fn	.	.	.	.	.	.	.	.	.	8r	.	8r	.	.
=3	=3	=3	=3	=3	=3	=3	=3	=3	=3	=3	=3	=3	=3	=3	=3	=3	=3	=3	=3	=3	=3	=3
8BB-X'L	.	8D-X'	.	4r	.	8r	.	4r	.	2r	.	3ddn	f	2r	2r	3d	<	8r	.	8r	.	2r
8BB-'J	.	8r	.	.	.	8gn'	.	.	.	.	.	.	.	.	.	.	.	8ff#X^	.	8bbn^	.	.
4r	.	8r	.	8A-X'L	.	4r	.	8cnL	f	.	.	.	.	.	.	.	.	8ff#^	.	8bb^	.	.
.	.	.	.	.	.	.	.	.	.	.	.	6een	.	.	.	[6e~	.	.	.	.	.	.
.	.	8D-'	.	8A-'J	.	.	.	8B-XJ	.	.	.	.	.	.	.	.	.	8r	.	8r	.	.
=4	=4	=4	=4	=4	=4	=4	=4	=4	=4	=4	=4	=4	=4	=4	=4	=4	=4	=4	=4	=4	=4	=4
8BB-X'	.	4r	.	4r	.	8gn'	.	2r	.	2r	.	6r	.	2r	2r	6e	.	8r	.	8r	.	2r
8r	.	.	.	.	.	[4.g~	<	.	.	.	.	.	.	.	.	.	.	(4.ff#X^	[[	(4.bbn^	[[	.
.	.	.	.	.	.	.	.	.	.	.	.	6gg#X	.	.	.	(6a-X	.	.	.	.	.	.
8r	.	8D-X'L	.	[4A-X~	<	.	.	.	.	.	.	.	.	.	.	.	.	.	.	.	.	.
.	.	.	.	.	.	.	.	.	.	.	.	6ee#X	.	.	.	6fn	[[	.	.	.	.	.
[8BB-~	<	[8D-~J	<	.	.	.	.	.	.	.	.	.	.	.	.	.	.	.	.	.	.	.
=5	=5	=5	=5	=5	=5	=5	=5	=5	=5	=5	=5	=5	=5	=5	=5	=5	=5	=5	=5	=5	=5	=5
8BB-L]	.	8D-L]	.	8A-L]	.	8gL]	.	8r	.	2r	.	2r	.	2r	2r	8Fn^)	[	8F#X^)	[	8Bn^)	[	2r
8FFn^J	[	8Dn^J	[	8cn^J	mp	8gn^J	[	8F#X	.	.	.	.	.	.	.	8r	.	8r	.	8r	.	.
[4FF^	.	[4D^	.	4c^	[	[4g^	.	8BnL	.	.	.	.	.	.	.	8r	.	8r	.	8r	.	.
.	.	.	.	.	.	.	.	8c#XJ	.	.	.	.	.	.	.	8F-X^	.	8F#^	.	8B^	.	.
=6	=6	=6	=6	=6	=6	=6	=6	=6	=6	=6	=6	=6	=6	=6	=6	=6	=6	=6	=6	=6	=6	=6
8r	.	8r	.	8r	.	8r	.	[4c#X	.	2r	.	8r	.	2r	2r	8E-X^	.	8F#X^	.	8Bn^	.	2r
4FFn^	.	4Dn^	.	4cn^	.	4gn^	.	.	.	.	.	8bn	.	.	.	8r	.	8r	.	8r	.	.
.	.	.	.	.	.	.	.	4r	.	.	.	8f#XL	.	.	.	8r	.	8r	.	8r	.	.
8r	.	8r	.	8r	.	8r	.	.	.	.	.	8bJ	.	.	.	[8E-X^	.	[8F#X^	.	[8Bn^	.	.
=7	=7	=7	=7	=7	=7	=7	=7	=7	=7	=7	=7	=7	=7	=7	=7	=7	=7	=7	=7	=7	=7	=7
4FFn^	.	4Dn^	.	4cn^	.	4gn^	.	2r	.	4r	.	4cc#X	.	2r	2r	8E-]	.	8F#]	.	8B]	.	2r
.	.	.	.	.	.	.	.	.	.	.	.	.	.	.	.	8r	.	8r	.	8r	.	.
8r	.	8r	.	8r	.	8r	.	.	.	8r	.	4dd#X	.	.	.	8E-X^	.	8F#X^	.	8Bn^	.	.
8FF^	.	8D^	.	8c^	.	8g^	.	.	.	8fn	mf	.	.	.	.	8r	.	8r	.	8r	.	.
==	==	==	==	==	==	==	==	==	==	==	==	==	==	==	==	==	==	==	==	==	==	==
*-	*-	*-	*-	*-	*-	*-	*-	*-	*-	*-	*-	*-	*-	*-	*-	*-	*-	*-	*-	*-	*-	*-
!!!CDT: 1885/02/09-1935/12/24
!!!CBL: Vienna, Austria
!!!CDL: Vienna, Austria
!!!CNT: Austrian
!!!AGN: Stage; Opera
!!!MCN: Denzler, Robert
!!!MDT: 1937/06/02
!!!MGN: unknown
!!!MLC: Zürich, Switzerland
!!!MPD: 1937
!!!MPN: Hadžić, Bahrija
!!!ODT: 1935
!!!PDT: 1936
!!!excerpt-start-measure: 0
!!!excerpt-end-measure: 0
!!!excerpt-start-time: 20:22
!!!excerpt-end-time: 20:28
!!!EEV: 2020/01/17
!!!system-decoration: [(s1,s2,s3,s4)]{(s5,s6)}[(s7,s8,s9)][(s10,s11,s12,s13)]
!!!ONB: Converted from MusicXML on 2020/01/17
